build/img/vector/feature-recommend.svg

<?xml version="1.0" encoding="UTF-8" standalone="no"?>
<svg width="180px" height="180px" viewBox="0 0 180 180" version="1.1" xmlns="http://www.w3.org/2000/svg" xmlns:xlink="http://www.w3.org/1999/xlink" xmlns:sketch="http://www.bohemiancoding.com/sketch/ns">
    <!-- Generator: Sketch 3.3.2 (12043) - http://www.bohemiancoding.com/sketch -->
    <title>Imported Layers</title>
    <desc>Created with Sketch.</desc>
    <defs>
        <path id="path-1" d="M166.563261,82.7740072 C166.563261,128.471264 129.38413,165.516173 83.5213043,165.516173 C37.6584783,165.516173 0.479347826,128.471264 0.479347826,82.7740072 C0.479347826,37.0767509 37.6584783,0.0318411552 83.5213043,0.0318411552 C129.38413,0.0318411552 166.563261,37.0767509 166.563261,82.7740072"></path>
    </defs>
    <g id="Page-1" stroke="none" stroke-width="1" fill="none" fill-rule="evenodd" sketch:type="MSPage">
        <g id="deliverinbox_1280" sketch:type="MSArtboardGroup" transform="translate(-705.000000, -1072.000000)">
            <g id="Imported-Layers" sketch:type="MSLayerGroup" transform="translate(705.000000, 1072.000000)">
                <path d="M179.444348,90.25213 C179.444348,139.509747 139.368913,179.440505 89.9328261,179.440505 C40.4967391,179.440505 0.421304348,139.509747 0.421304348,90.25213 C0.421304348,40.9945126 40.4967391,1.06375451 89.9328261,1.06375451 C139.368913,1.06375451 179.444348,40.9945126 179.444348,90.25213" id="Fill-1" fill="#FFB931" sketch:type="MSShapeGroup"></path>
                <path d="M172.548913,90.0461372 C172.548913,135.61083 135.478043,172.54852 89.7482609,172.54852 C44.0178261,172.54852 6.94695652,135.61083 6.94695652,90.0461372 C6.94695652,44.481444 44.0178261,7.54375451 89.7482609,7.54375451 C135.478043,7.54375451 172.548913,44.481444 172.548913,90.0461372" id="Fill-2" fill="#BDE8EF" sketch:type="MSShapeGroup"></path>
                <g id="Group-11" transform="translate(6.521739, 7.148014)">
                    <mask id="mask-2" sketch:name="Clip 4" fill="white">
                        <use xlink:href="#path-1"></use>
                    </mask>
                    <g id="Clip-4"></g>
                    <path d="M121.737391,146.870903 L-22.6656522,146.870903 C-25.8697826,146.870903 -28.4667391,144.283321 -28.4667391,141.091408 L-28.4667391,44.8323466 C-28.4667391,41.6404332 -25.8697826,39.0522022 -22.6656522,39.0522022 L121.737391,39.0522022 C124.941522,39.0522022 127.538478,41.6404332 127.538478,44.8323466 L127.538478,141.091408 C127.538478,144.283321 124.941522,146.870903 121.737391,146.870903" id="Fill-3" fill="#D6D6D6" sketch:type="MSShapeGroup" mask="url(#mask-2)"></path>
                    <path d="M119.66087,145.165126 L-24.7421739,145.165126 C-27.9456522,145.165126 -30.5432609,142.577545 -30.5432609,139.384982 L-30.5432609,43.1265704 C-30.5432609,39.9340072 -27.9456522,37.346426 -24.7421739,37.346426 L119.66087,37.346426 C122.865,37.346426 125.461957,39.9340072 125.461957,43.1265704 L125.461957,139.384982 C125.461957,142.577545 122.865,145.165126 119.66087,145.165126" id="Fill-5" fill="#F3F3F3" sketch:type="MSShapeGroup" mask="url(#mask-2)"></path>
                    <path d="M121.376739,143.235812 L-26.3295652,143.235812 C-28.6213043,143.235812 -30.4786957,140.999134 -30.4786957,138.23935 L-30.4786957,132.293502 C-10.3128261,118.323682 47.523913,79.3234657 47.523913,79.3234657 L125.526522,131.90296 L125.526522,138.23935 C125.526522,140.999134 123.668478,143.235812 121.376739,143.235812" id="Fill-6" fill="#E5E5E5" sketch:type="MSShapeGroup" mask="url(#mask-2)"></path>
                    <path d="M121.417174,144.621227 L-26.2891304,144.621227 C-28.5808696,144.621227 -30.4382609,142.384549 -30.4382609,139.625415 L-30.4382609,133.678917 C-10.2723913,119.709747 47.5643478,80.7095307 47.5643478,80.7095307 L125.566957,133.289025 L125.566957,139.625415 C125.566957,142.384549 123.708913,144.621227 121.417174,144.621227" id="Fill-7" fill="#FCFCFC" sketch:type="MSShapeGroup" mask="url(#mask-2)"></path>
                    <path d="M121.417174,39.4557401 L-26.2891304,39.4557401 C-28.5808696,39.4557401 -30.4382609,41.7645487 -30.4382609,44.6127076 L-30.4382609,50.7489531 C-10.2723913,65.1664982 47.5643478,105.418267 47.5643478,105.418267 L125.566957,51.1518412 L125.566957,44.6127076 C125.566957,41.7645487 123.708913,39.4557401 121.417174,39.4557401" id="Fill-8" fill="#E5E5E5" sketch:type="MSShapeGroup" mask="url(#mask-2)"></path>
                    <path d="M121.417174,37.346426 L-26.2891304,37.346426 C-28.5808696,37.346426 -30.4382609,39.6552347 -30.4382609,42.5033935 L-30.4382609,48.639639 C-10.2723913,63.0571841 47.5643478,103.308953 47.5643478,103.308953 L125.566957,49.0425271 L125.566957,42.5033935 C125.566957,39.6552347 123.708913,37.346426 121.417174,37.346426 L121.417174,37.346426 Z" id="Fill-9" fill="#FCFCFC" sketch:type="MSShapeGroup" mask="url(#mask-2)"></path>
                    <path d="M121.417174,37.346426 L-26.2891304,37.346426 C-28.5808696,37.346426 -30.4382609,39.6552347 -30.4382609,42.5033935 L-30.4382609,48.639639 C-10.2723913,63.0571841 47.5643478,103.308953 47.5643478,103.308953 L125.566957,49.0425271 L125.566957,42.5033935 C125.566957,39.6552347 123.708913,37.346426 121.417174,37.346426 L121.417174,37.346426 Z" id="Stroke-10" stroke="#E2E2E2" sketch:type="MSShapeGroup" mask="url(#mask-2)"></path>
                </g>
                <path d="M176.773043,32.7729964 C176.773043,50.8594224 162.058043,65.5219495 143.906087,65.5219495 C125.75413,65.5219495 111.038478,50.8594224 111.038478,32.7729964 C111.038478,14.6865704 125.75413,0.0246931408 143.906087,0.0246931408 C162.058043,0.0246931408 176.773043,14.6865704 176.773043,32.7729964" id="Fill-12" fill="#FAE7C5" sketch:type="MSShapeGroup"></path>
                <path d="M170.58587,32.3428159 C170.58587,47.2964621 158.419565,59.4188448 143.411739,59.4188448 C128.403913,59.4188448 116.238261,47.2964621 116.238261,32.3428159 C116.238261,17.3891697 128.403913,5.266787 143.411739,5.266787 C158.419565,5.266787 170.58587,17.3891697 170.58587,32.3428159 L170.58587,32.3428159 Z" id="Fill-13" fill="#FFFFFF" sketch:type="MSShapeGroup"></path>
                <path d="M170.58587,32.3428159 C170.58587,47.2964621 158.419565,59.4188448 143.411739,59.4188448 C128.403913,59.4188448 116.238261,47.2964621 116.238261,32.3428159 C116.238261,17.3891697 128.403913,5.266787 143.411739,5.266787 C158.419565,5.266787 170.58587,17.3891697 170.58587,32.3428159 L170.58587,32.3428159 Z" id="Stroke-14" stroke="#FFBC00" stroke-width="2" sketch:type="MSShapeGroup"></path>
                <path d="M143.557826,46.5134296 L131.329565,30.7046209 C130.58413,29.707148 130.660435,28.2502527 131.628261,27.4652708 C132.643696,26.6425993 134.13,26.8355957 134.902826,27.8694585 L143.557826,35.0577617 L157.16413,20.7032491 C157.935652,19.7090253 159.369783,19.5270758 160.366304,20.2958123 C161.363478,21.0645487 161.546739,22.492852 160.774565,23.486426 L143.557826,46.5134296 C143.548696,46.5251264 143.566304,46.5251264 143.557826,46.5134296" id="Fill-15" fill="#FFB931" sketch:type="MSShapeGroup"></path>
            </g>
        </g>
    </g>
</svg>

<svg width="180" height="180" viewBox="0 0 180 180" xmlns="http://www.w3.org/2000/svg" xmlns:xlink="http://www.w3.org/1999/xlink"><title>Imported Layers</title><defs><path id="a" d="M166.563 82.774c0 45.697-37.18 82.742-83.042 82.742S.48 128.47.48 82.774 37.657.032 83.52.032c45.864 0 83.043 37.045 83.043 82.742"/></defs><g fill="none" fill-rule="evenodd"><path d="M179.444 90.252c0 49.258-40.075 89.19-89.51 89.19C40.496 179.44.42 139.51.42 90.25c0-49.257 40.077-89.188 89.513-89.188 49.436 0 89.51 39.93 89.51 89.188" fill="#FFB931"/><path d="M172.55 90.046c0 45.565-37.072 82.503-82.802 82.503-45.73 0-82.8-36.94-82.8-82.504 0-45.565 37.07-82.502 82.8-82.502s82.8 36.937 82.8 82.502" fill="#BDE8EF"/><g transform="translate(6.522 7.148)"><mask id="b" fill="#fff"><use xlink:href="#a"/></mask><path d="M121.737 146.87H-22.666c-3.204 0-5.8-2.587-5.8-5.78V44.833c0-3.192 2.596-5.78 5.8-5.78h144.403c3.205 0 5.8 2.588 5.8 5.78v96.26c0 3.19-2.595 5.78-5.8 5.78" fill="#D6D6D6" mask="url(#b)"/><path d="M119.66 145.165H-24.74c-3.204 0-5.8-2.587-5.8-5.78V43.127c0-3.193 2.596-5.78 5.8-5.78H119.66c3.205 0 5.802 2.587 5.802 5.78v96.258c0 3.193-2.597 5.78-5.8 5.78" fill="#F3F3F3" mask="url(#b)"/><path d="M121.377 143.236H-26.33c-2.29 0-4.15-2.237-4.15-4.997v-5.946c20.167-13.97 78.004-52.97 78.004-52.97l78.003 52.58v6.335c0 2.76-1.86 4.996-4.15 4.996" fill="#E5E5E5" mask="url(#b)"/><path d="M121.417 144.62H-26.29c-2.29 0-4.148-2.235-4.148-4.995v-5.946c20.166-13.97 78.002-52.97 78.002-52.97l78.003 52.58v6.335c0 2.76-1.858 4.996-4.15 4.996" fill="#FCFCFC" mask="url(#b)"/><path d="M121.417 39.456H-26.29c-2.29 0-4.148 2.31-4.148 5.157v6.136c20.166 14.416 78.002 54.668 78.002 54.668l78.003-54.266v-6.54c0-2.847-1.858-5.156-4.15-5.156" fill="#E5E5E5" mask="url(#b)"/><path d="M121.417 37.346H-26.29c-2.29 0-4.148 2.31-4.148 5.157v6.137c20.166 14.417 78.002 54.67 78.002 54.67l78.003-54.267v-6.54c0-2.848-1.858-5.157-4.15-5.157z" fill="#FCFCFC" mask="url(#b)"/><path d="M121.417 37.346H-26.29c-2.29 0-4.148 2.31-4.148 5.157v6.137c20.166 14.417 78.002 54.67 78.002 54.67l78.003-54.267v-6.54c0-2.848-1.858-5.157-4.15-5.157z" stroke="#E2E2E2" mask="url(#b)"/></g><path d="M176.773 32.773c0 18.086-14.715 32.75-32.867 32.75-18.152 0-32.868-14.664-32.868-32.75S125.754.025 143.906.025s32.867 14.662 32.867 32.748" fill="#FAE7C5"/><path d="M170.586 32.343c0 14.953-12.166 27.076-27.174 27.076s-27.174-12.124-27.174-27.077c0-14.954 12.166-27.076 27.174-27.076s27.174 12.122 27.174 27.076z" fill="#FFF"/><path d="M170.586 32.343c0 14.953-12.166 27.076-27.174 27.076s-27.174-12.124-27.174-27.077c0-14.954 12.166-27.076 27.174-27.076s27.174 12.122 27.174 27.076z" stroke="#FFBC00" stroke-width="2"/><path d="M143.558 46.513L131.33 30.705c-.746-.998-.67-2.455.298-3.24 1.016-.822 2.502-.63 3.275.404l8.655 7.188 13.606-14.355c.772-.994 2.206-1.176 3.202-.407.997.77 1.18 2.197.41 3.19l-17.218 23.027c-.01.012.008.012 0 0" fill="#FFB931"/></g></svg>
